X:2088
L:1/8
Q:3/8=120
M:6/8
K:Bmin
 e | dcB AFE | (FB)B B2 c | dcd Bed | cAA A2 e | a^ga fga | ecA cde | fdB AFE | FBB B2 :| f | 
 (fb).b (fb).b | dBB B2 ^g | a^ga fga | ecA ABc | dcd ede | fed cde | fdB AFE | FBB B2 :|

